X: 8022
T: Connemara Stockings, The
R: reel
M: 4/4
K: Cmajor
c2Bc AGED|C2EC DG,B,D|C2EG Addc|BGAB cedB|
c2Bc AGED|C2EC DG,B,D|C2EG Addc|BGAB c2ed||
ceAe ceAd|BdGd BdGd|ceAe ceAd|BGdB A2AG|
Aeed e2dc|Bdde dGAB|c2ec BgdB|AGAB cedB||

